T: James Kelly's
M: 4/4
L: 1/8
K: Edor
BE- EB DEBE- | EeBE GABG | (3AAA FE DEFA | defd ~e2gf |
eBBA ABBd | BAGB DEGE | EAFE DEFA |1 defd e2dc :|2 defd eA B/c/d ||
|: eB~B2 g2fg | eBde- egaf | dA~A2 effe | dBAF DF B/c/d |
~e3B ~g2fg | eBde- egaf | dA~A2 effe |1 dBAF ~e3B :|2 dBAF e2z2 ||
